static/site/images/special-projects/autoclave/svg/1-stroke.svg

<svg width="48" height="74" viewBox="0 0 48 74" fill="none" xmlns="http://www.w3.org/2000/svg">
<path d="M3.176 28.032L1.20894 27.6705L0.668665 30.6102L3.59222 29.9882L3.176 28.032ZM6.44 10.272L6.08006 8.30466L4.72242 8.55305L4.47294 9.91049L6.44 10.272ZM44.744 3.264L46.7151 3.60261L47.1998 0.781501L44.3841 1.29665L44.744 3.264ZM32.936 72V74H34.6217L34.9071 72.3386L32.936 72ZM12.968 72L10.9972 71.6597L10.593 74H12.968V72ZM21.224 24.192L23.1948 24.5323L23.6976 21.6209L20.8078 22.2358L21.224 24.192ZM5.14306 28.3935L8.40706 10.6335L4.47294 9.91049L1.20894 27.6705L5.14306 28.3935ZM6.79994 12.2393L45.1039 5.23134L44.3841 1.29665L6.08006 8.30466L6.79994 12.2393ZM42.7729 2.92538L30.9649 71.6614L34.9071 72.3386L46.7151 3.60261L42.7729 2.92538ZM32.936 70H12.968V74H32.936V70ZM14.9388 72.3403L23.1948 24.5323L19.2532 23.8517L10.9972 71.6597L14.9388 72.3403ZM20.8078 22.2358L2.75979 26.0758L3.59222 29.9882L21.6402 26.1482L20.8078 22.2358Z" fill="#0073FF"/>
</svg>

<svg width="48" height="74" fill="none" xmlns="http://www.w3.org/2000/svg"><path d="M3.176 28.032l-1.967-.361-.54 2.94 2.923-.623-.416-1.956zm3.264-17.76l-.36-1.967-1.358.248-.25 1.357 1.968.362zm38.304-7.008l1.971.339L47.2.782l-2.816.515.36 1.967zM32.936 72v2h1.686l.285-1.661L32.936 72zm-19.968 0l-1.97-.34-.405 2.34h2.375v-2zm8.256-47.808l1.97.34.504-2.911-2.89.615.416 1.956zm-16.08 4.201l3.263-17.76-3.934-.723-3.264 17.76 3.934.723zM6.8 12.24l38.304-7.008-.72-3.934L6.08 8.305l.72 3.934zm35.973-9.314L30.965 71.661l3.942.678L46.715 3.603l-3.942-.678zM32.936 70H12.968v4h19.968v-4zm-17.997 2.34l8.256-47.808-3.942-.68-8.256 47.808 3.942.68zm5.869-50.104L2.76 26.076l.832 3.912 18.048-3.84-.832-3.912z" fill="#0073FF"/></svg>
